!!!OTL: ES KAM EIN MANN VON NINIVE
!!!ARE: Europa, Mitteleuropa, Deutschland, Dresden
!!!SCT: K2268
!!!YEM: Copyright 1995, estate of Helmut Schaffrath.
**kern
*ICvox
*Ivox
*M2/4
*k[f#]
*G:
{8d
=1
8g
8g
8g
8b
=2
8g
8g
8d
8r}
=3
{8.a
16g
8f#
8e
=4
8d
8b
8g}
{8d
=5
8g
8g
8g
8b
=6
8g
8g
8d
8r}
=7
{8.a
16g
8f#
8e
=8
8d
8b
8g}
==
!!!AGN: Kinder - Lied, Reigen, Tanz - Spiel
!!!ONB: ESAC (Essen Associative Code) Database: KINDER
!!!AMT: simple duple
!!!AIN: vox
!!!EED: Helmut Schaffrath
!!!EEV: 1.0
*-
